X:1
T:The Private Still
M:4/4
L:1/8
K:C
 G| EE ED CC CD| EE FF G2 z c| EE ED CC CD| EE FF G2| E| GG GA cG GE|\
 GG AB c2 z c| ed cBc-G-G-G| AA B3/2 B/2 c2 z| F/2E/2| E2 F3/2 F/2 G2 c2|\
 E2 D3/2 D/2 C2 z||
